app/component-library/components/Icons/Icon/assets/home.svg

<svg width="24" height="24" viewBox="0 0 24 24" fill="none" xmlns="http://www.w3.org/2000/svg">
<path d="M20.3127 6.81969L14.5585 2.78969C12.9901 1.68969 10.5825 1.74969 9.07397 2.91969L4.06897 6.82969C3.06997 7.60969 2.28076 9.20969 2.28076 10.4697V17.3697C2.28076 19.9197 4.34869 21.9997 6.89615 21.9997H17.6654C20.2128 21.9997 22.2808 19.9297 22.2808 17.3797V10.5997C22.2808 9.24969 21.4116 7.58969 20.3127 6.81969ZM13.03 17.9997C13.03 18.4097 12.6904 18.7497 12.2808 18.7497C11.8712 18.7497 11.5315 18.4097 11.5315 17.9997V14.9997C11.5315 14.5897 11.8712 14.2497 12.2808 14.2497C12.6904 14.2497 13.03 14.5897 13.03 14.9997V17.9997Z" fill="currentColor"/>
</svg>

<svg xmlns="http://www.w3.org/2000/svg" width="24" height="24" viewBox="0 0 24 24" fill="none"><path d="m20.313 6.82-5.754-4.03c-1.569-1.1-3.976-1.04-5.485.13L4.069 6.83c-.999.78-1.788 2.38-1.788 3.64v6.9c0 2.55 2.068 4.63 4.615 4.63h10.77a4.62 4.62 0 0 0 4.615-4.62V10.6c0-1.35-.87-3.01-1.968-3.78zM13.03 18c0 .41-.34.75-.75.75-.409 0-.748-.34-.748-.75v-3c0-.41.34-.75.749-.75.41 0 .749.34.749.75v3z" fill="currentColor"/></svg>
